X:191
T: Haenschen klein ging allein
N: D1022
O: Europa, Mitteleuropa, Deutschland, Baden, Freiburg /Br., Ebnet
N: DVA-Signatur A 218 598
R: Kinder - Lied
M: 4/4
L: 1/4
K: G
dBB2 | cAA2
GABc | ddd2
dBB2 | cAA2
GBdd | G2z2
AAAA | ABc2
BBBB | Bcd2
dBB2 | cAA2
GBdd | G2z2
AAAA | ABc2
BBBB | Bcd2
dBB2 | cAA2
GBdd | G2z2

